img/screens/empowering/02.svg

<svg width="140" height="90" viewBox="0 0 140 90" fill="none" xmlns="http://www.w3.org/2000/svg">
<mask id="mask0_10_175" style="mask-type:alpha" maskUnits="userSpaceOnUse" x="0" y="0" width="140" height="90">
<rect width="140" height="90" fill="#D9D9D9"/>
</mask>
<g mask="url(#mask0_10_175)">
<path fill-rule="evenodd" clip-rule="evenodd" d="M42.5439 8.29431C54.9264 6.0783 67.9146 5.48344 80.8092 8.1269C93.4916 10.7269 105.73 15.5087 114.004 22.944C121.944 30.0791 122.186 39.0949 124.807 47.6641C127.683 57.0657 136.919 67.6866 130.035 75.3465C123.133 83.0269 105.975 81.1621 92.953 83.1095C82.223 84.7141 72.0168 86.4066 60.7706 85.7048C47.1378 84.8541 32.0853 85.21 21.3805 78.6432C10.2568 71.8195 7.23158 61.078 4.62937 51.2657C1.91568 41.033 -1.15513 29.8342 6.21971 21.4757C13.5174 13.2048 28.774 10.7586 42.5439 8.29431Z" fill="url(#paint0_linear_10_175)"/>
<path fill-rule="evenodd" clip-rule="evenodd" d="M46.2705 9.64197C58.653 7.42596 71.6412 6.83109 84.5358 9.47455C97.2182 12.0745 109.456 16.8563 117.731 24.2917C125.671 31.4267 125.912 40.4425 128.534 49.0117C131.41 58.4133 140.646 69.0342 133.762 76.6942C126.86 84.3746 109.702 82.5097 96.6795 84.4571C85.9495 86.0618 75.7433 87.7543 64.4971 87.0525C50.8644 86.2018 35.8118 86.5576 25.107 79.9909C13.9833 73.1672 10.9581 62.4256 8.35593 52.6133C5.64224 42.3806 2.57143 31.1818 9.94628 22.8234C17.2439 14.5524 32.5005 12.1063 46.2705 9.64197Z" fill="url(#paint1_linear_10_175)"/>
</g>
<path d="M48.6381 76.396C48.796 76.3588 48.9444 76.2888 49.0736 76.1906C49.2028 76.0924 49.3099 75.9682 49.3881 75.826C49.4784 75.6265 49.5251 75.41 49.5251 75.191C49.5251 74.972 49.4784 74.7555 49.3881 74.556C49.0937 73.7634 48.9217 72.9305 48.8781 72.086C48.9558 71.8468 49.0633 71.6184 49.1981 71.406C49.5281 70.816 49.8581 70.206 49.5181 69.786C49.4327 69.6759 49.3237 69.5864 49.1991 69.5241C49.0744 69.4618 48.9374 69.4283 48.7981 69.426C48.9331 69.3815 49.0636 69.3246 49.1881 69.256C49.2405 69.2271 49.2851 69.186 49.3181 69.136C51.3981 65.986 55.9481 63.136 58.9581 61.216C60.1714 60.5749 61.2889 59.7671 62.2781 58.816C64.5196 57.194 66.4107 55.1363 67.8381 52.766C68.4141 53.3477 69.0324 53.8859 69.6881 54.376C70.5981 55.126 71.6881 56.056 72.6181 56.846C72.8848 57.1888 73.0738 57.5854 73.1723 58.0084C73.2707 58.4314 73.2761 58.8707 73.1881 59.296C73.1045 59.905 73.1248 60.5238 73.2481 61.126C73.5565 62.2834 73.9751 63.4085 74.4981 64.486C75.5269 66.627 76.2474 68.903 76.6381 71.246V71.346C76.2371 71.7902 75.9883 72.3507 75.9281 72.946C75.8055 73.3029 75.7599 73.6817 75.7944 74.0575C75.8289 74.4332 75.9426 74.7974 76.1281 75.126C76.1923 75.2155 76.2761 75.2891 76.3732 75.3411C76.4703 75.3931 76.578 75.4222 76.6881 75.426C77.3081 75.426 78.7981 75.426 79.4181 75.426C80.4262 75.4092 81.4305 75.2987 82.4181 75.096C83.7502 74.8537 85.0191 74.3434 86.1481 73.596C86.188 73.5691 86.2213 73.5336 86.2455 73.492C86.2697 73.4505 86.2843 73.404 86.2881 73.356C86.3076 73.1947 86.2945 73.0311 86.2499 72.8748C86.2053 72.7185 86.1299 72.5727 86.0281 72.446C85.8742 72.2896 85.6904 72.1656 85.4878 72.0814C85.2851 71.9972 85.0676 71.9546 84.8481 71.956C84.0054 71.9376 83.1699 71.7961 82.3681 71.536C82.1672 71.3777 81.9889 71.1926 81.8381 70.986C81.4081 70.476 80.9681 69.986 80.4481 70.106C80.3714 70.1313 80.2976 70.1649 80.2281 70.206C79.3381 67.4719 78.7513 64.6483 78.4781 61.786C78.2481 60.026 78.0181 58.356 77.7081 57.026C77.4481 54.296 74.3081 48.026 71.4381 44.496L71.7881 42.746C72.0181 42.026 72.6081 40.106 73.1681 38.016C73.1843 37.9611 73.1864 37.903 73.1742 37.847C73.1619 37.7911 73.1358 37.7392 73.0981 37.696C72.9181 37.496 72.7481 37.286 72.5781 37.056C73.5067 38.382 74.9107 39.2989 76.4981 39.616C76.8781 39.766 77.9681 39.776 81.5881 33.896C82.4567 33.0458 83.0074 31.9233 83.1481 30.716C83.1481 30.086 82.5681 29.496 81.4881 28.886C80.9681 28.526 80.4881 29.096 80.2981 29.376L80.2181 29.476C79.4681 29.716 79.4181 29.796 79.3581 29.886C79.1064 30.4978 79.1064 31.1842 79.3581 31.796C79.3581 31.926 79.4181 32.066 79.4381 32.196C79.1496 32.6814 78.7926 33.1226 78.3781 33.506C77.903 33.8186 77.3685 34.0297 76.8081 34.126L76.2481 34.276C75.5381 32.346 74.7281 30.426 74.4181 29.676L74.3381 29.496C74.3533 28.8858 74.2431 28.279 74.0144 27.7131C73.7856 27.1471 73.4431 26.6342 73.0081 26.206C72.6384 25.8465 72.2129 25.5493 71.7481 25.326C71.7525 25.2996 71.7525 25.2725 71.7481 25.246L71.8981 24.416C72.3621 24.5456 72.8377 24.6294 73.3181 24.666C74.0481 24.666 74.1681 23.836 74.3181 22.606C74.7281 22.486 74.8181 22.346 74.8581 22.286C74.9099 22.1951 74.9276 22.0888 74.9081 21.986C74.9081 21.816 74.7381 21.376 74.6181 20.986C74.6181 20.816 74.5181 20.666 74.4881 20.546C74.6509 19.7367 74.6914 18.9074 74.6081 18.086C74.6138 18.0429 74.6138 17.9992 74.6081 17.956C74.6533 17.8923 74.6871 17.8213 74.7081 17.746C74.7128 17.7162 74.7128 17.6859 74.7081 17.656C74.714 17.2185 74.596 16.7882 74.3677 16.4148C74.1394 16.0415 73.8102 15.7403 73.4181 15.546C72.6901 15.1007 71.8651 14.838 71.0136 14.7806C70.1621 14.7231 69.3093 14.8725 68.5281 15.216C67.9914 15.5241 67.5254 15.9414 67.1602 16.4409C66.795 16.9405 66.5388 17.5112 66.4081 18.116C66.2947 18.947 66.36 19.7925 66.5997 20.5962C66.8394 21.3998 67.248 22.143 67.7981 22.776C67.8029 23.3154 67.7079 23.8511 67.5181 24.356C67.3382 24.4653 67.1511 24.5622 66.9581 24.646C66.3446 24.8987 65.7691 25.2353 65.2481 25.646L64.8881 25.796C62.8019 26.5113 60.8782 27.6329 59.2281 29.096C58.8481 29.436 58.4781 29.726 58.1481 29.996C57.1481 30.826 56.4481 31.376 56.4281 32.076C56.4418 32.2726 56.4981 32.4639 56.5931 32.6365C56.6881 32.8092 56.8195 32.9591 56.9781 33.076C59.2852 34.7321 61.8738 35.9552 64.6181 36.686C64.7148 38.0808 64.5066 39.4798 64.0081 40.786C63.2438 41.6905 62.6722 42.7416 62.3283 43.8747C61.9844 45.0079 61.8754 46.1993 62.0081 47.376C61.6766 48.3628 61.2618 49.3196 60.7681 50.236C60.0015 51.7377 59.3334 53.2876 58.7681 54.876C57.7935 55.7968 56.6882 56.5684 55.4881 57.166C54.2701 57.795 53.1404 58.5818 52.1281 59.506C51.4854 60.2281 50.9253 61.0197 50.4581 61.866C49.5105 63.5226 48.3054 65.018 46.8881 66.296C46.8571 66.3238 46.8322 66.3576 46.815 66.3955C46.7977 66.4334 46.7886 66.4744 46.7881 66.516C46.2745 66.401 45.7418 66.401 45.2281 66.516C44.8508 66.5353 44.4819 66.6344 44.1458 66.8067C43.8096 66.9791 43.5139 67.2209 43.2781 67.516C43.2175 67.6079 43.1787 67.7125 43.1649 67.8217C43.151 67.9309 43.1624 68.0419 43.1981 68.146C43.4281 68.726 43.9881 70.146 44.1981 70.676C44.5842 71.6238 45.0562 72.5342 45.6081 73.396C46.3171 74.5487 47.2526 75.5455 48.3581 76.326C48.4138 76.3651 48.4801 76.3861 48.5481 76.386L48.6381 76.396ZM46.6381 67.306C46.8381 68.516 47.3581 69.836 48.0681 70.056C48.2686 70.1175 48.4795 70.1379 48.6881 70.116C48.9281 70.116 48.9681 70.116 49.0381 70.196C49.1081 70.276 48.8081 70.816 48.6681 71.066C48.4888 71.3542 48.354 71.6677 48.2681 71.996C48.3109 72.9409 48.4929 73.8743 48.8081 74.766C48.9027 75.0036 48.9027 75.2684 48.8081 75.506C48.7688 75.5872 48.7012 75.6512 48.6181 75.686C47.654 74.9684 46.8332 74.0763 46.1981 73.056C45.6682 72.2297 45.2163 71.356 44.8481 70.446C44.6081 69.876 44.0481 68.506 43.8481 67.946C43.8481 67.836 44.2481 67.396 45.3381 67.246C45.6461 67.1998 45.9567 67.1731 46.2681 67.166C46.5781 67.166 46.5881 67.236 46.5981 67.306H46.6381ZM77.2181 71.916C78.4181 72.166 79.8381 72.166 80.2981 71.586C80.4256 71.417 80.5236 71.2277 80.5881 71.026C80.6581 70.796 80.6781 70.756 80.7881 70.726C80.8981 70.696 81.2781 71.166 81.4681 71.386C81.6632 71.6609 81.9032 71.9009 82.1781 72.096C83.0743 72.4015 84.0116 72.57 84.9581 72.596C85.2149 72.5863 85.4656 72.6759 85.6581 72.846C85.7132 72.9189 85.7477 73.0052 85.7581 73.096C84.7389 73.7312 83.6092 74.1688 82.4281 74.386C81.4668 74.5831 80.4892 74.6902 79.5081 74.706H76.7981C76.7081 74.706 76.4381 74.136 76.6881 73.066C76.9381 71.996 77.0781 71.866 77.1781 71.866L77.2181 71.916ZM75.2181 64.216C74.7187 63.1744 74.3137 62.09 74.0081 60.976C73.9238 60.4393 73.9238 59.8927 74.0081 59.356C74.1124 58.8316 74.0992 58.2906 73.9696 57.7719C73.8399 57.2532 73.5969 56.7697 73.2581 56.356C72.3181 55.516 71.1781 54.586 70.2581 53.836C69.6081 53.296 68.9381 52.746 68.6681 52.496C69.6567 50.4257 70.4663 48.2745 71.0881 46.066L71.2981 45.376C71.3299 45.2912 71.3267 45.1971 71.2892 45.1146C71.2517 45.0321 71.183 44.9679 71.0981 44.936C71.0132 44.9042 70.9192 44.9074 70.8367 44.9449C70.7542 44.9824 70.6899 45.0512 70.6581 45.136L70.5581 45.376C70.2381 46.166 69.6881 47.486 68.3581 50.536C66.9192 53.6136 64.7201 56.2739 61.9681 58.266C61.9217 58.2959 61.8838 58.3372 61.8581 58.386C60.9092 59.2582 59.8542 60.0075 58.7181 60.616C55.7181 62.536 51.1081 65.416 48.9281 68.666C48.7381 68.756 48.5981 68.816 48.5181 68.776C48.4381 68.736 48.0481 68.276 47.5781 66.666C48.9773 65.3813 50.1682 63.8868 51.1081 62.236C51.5579 61.4324 52.0908 60.6783 52.6981 59.986C53.6708 59.1172 54.7494 58.3747 55.9081 57.776C57.2063 57.1349 58.3917 56.2872 59.4181 55.266C59.4385 55.2383 59.4553 55.208 59.4681 55.176C60.0336 53.5974 60.7017 52.0575 61.4681 50.566C61.9905 49.607 62.4256 48.603 62.7681 47.566C62.7778 47.5266 62.7778 47.4854 62.7681 47.446C62.6385 46.3351 62.7433 45.2093 63.0758 44.1414C63.4082 43.0735 63.9608 42.0871 64.6981 41.246L64.7581 41.156C65.3349 39.6536 65.5607 38.0391 65.4181 36.436C65.4139 36.3559 65.3815 36.2798 65.3266 36.2212C65.2717 36.1626 65.1978 36.1254 65.1181 36.116C62.4057 35.4253 59.8432 34.2424 57.5581 32.626C57.2381 32.336 57.2381 32.166 57.2381 32.106C57.2381 31.726 57.9281 31.186 58.7081 30.546C59.0481 30.276 59.4181 29.976 59.8081 29.636C61.1385 28.4244 62.681 27.4684 64.3581 26.816C63.8511 27.5258 63.5562 28.3651 63.5081 29.236C63.4766 29.8564 63.4933 30.4783 63.5581 31.096L62.9281 31.226C62.5681 31.296 62.1581 31.376 61.6981 31.506C61.6244 31.5243 61.559 31.5667 61.5122 31.6265C61.4654 31.6863 61.44 31.7601 61.44 31.836C61.44 31.912 61.4654 31.9857 61.5122 32.0455C61.559 32.1053 61.6244 32.1477 61.6981 32.166C62.0465 32.3397 62.3809 32.5403 62.6981 32.766C63.1181 33.046 63.5881 33.356 64.0881 33.646C64.1681 33.986 64.2781 34.316 64.3781 34.646C64.4781 34.976 64.5881 35.306 64.6781 35.646C64.694 35.7349 64.7445 35.8138 64.8186 35.8653C64.8927 35.9169 64.9842 35.9369 65.0731 35.921C65.1619 35.9051 65.2408 35.8546 65.2924 35.7805C65.344 35.7064 65.364 35.6149 65.3481 35.526C65.2481 34.676 65.1081 33.846 64.9781 33.036C64.6864 31.659 64.5522 30.2533 64.5781 28.846C64.6046 28.1334 64.8259 27.4417 65.2181 26.846C65.259 26.7873 65.2808 26.7175 65.2808 26.646C65.2808 26.5745 65.259 26.5047 65.2181 26.446H65.2781L65.6981 26.276C65.7364 26.2659 65.7711 26.2451 65.7981 26.216C66.2777 25.8086 66.8131 25.4719 67.3881 25.216C67.6549 25.102 67.9095 24.9613 68.1481 24.796C68.2001 24.7638 68.239 24.7142 68.2581 24.656C68.5163 24.0008 68.6388 23.3 68.6181 22.596C68.6159 22.5268 68.5914 22.4601 68.5481 22.406C68.0391 21.8397 67.657 21.171 67.4276 20.4449C67.1982 19.7188 67.1268 18.952 67.2181 18.196C67.334 17.6873 67.5537 17.208 67.8634 16.7882C68.1732 16.3683 68.5663 16.0169 69.0181 15.756C69.69 15.4728 70.4198 15.354 71.1469 15.4097C71.8739 15.4654 72.5771 15.6938 73.1981 16.076C73.4751 16.2036 73.7136 16.4021 73.8892 16.6515C74.0648 16.9008 74.1714 17.1922 74.1981 17.496C74.0481 17.746 73.3781 17.786 72.1981 17.616H71.8981C71.8135 17.6044 71.7276 17.626 71.6586 17.6764C71.5896 17.7267 71.5428 17.8019 71.5281 17.886C71.5141 17.9703 71.5306 18.0569 71.5745 18.1302C71.6185 18.2034 71.6871 18.2587 71.7681 18.286C72.5334 18.5588 73.3491 18.6612 74.1581 18.586C74.1738 19.2238 74.1167 19.8612 73.9881 20.486C73.9731 20.5383 73.9731 20.5937 73.9881 20.646C73.9881 20.776 74.0781 20.966 74.1481 21.176C74.2181 21.386 74.3181 21.716 74.3681 21.916L74.1081 21.986C73.9681 21.986 73.8481 22.196 73.8281 22.346C73.832 22.9034 73.7302 23.4565 73.5281 23.976C72.9898 23.9319 72.459 23.821 71.9481 23.646C71.9041 23.6261 71.8563 23.6159 71.8081 23.6159C71.7598 23.6159 71.7121 23.6261 71.6681 23.646C71.6253 23.6691 71.5884 23.702 71.5606 23.7419C71.5328 23.7819 71.5148 23.8278 71.5081 23.876L71.3481 24.736C70.6111 24.5801 69.8612 24.493 69.1081 24.476C69.0222 24.4808 68.941 24.5171 68.8801 24.578C68.8192 24.6389 68.7829 24.7201 68.7781 24.806C68.775 24.8914 68.8041 24.9748 68.8597 25.0396C68.9153 25.1045 68.9933 25.146 69.0781 25.156C70.4224 25.2863 71.697 25.8156 72.7381 26.676C73.109 27.0534 73.3989 27.5027 73.5897 27.9963C73.7806 28.4898 73.8686 29.0172 73.8481 29.546C73.8391 29.5855 73.8391 29.6265 73.8481 29.666L73.9481 29.906C74.2781 30.686 75.1481 32.766 75.8781 34.786C75.9116 34.8695 75.9761 34.9369 76.058 34.9742C76.1399 35.0114 76.2331 35.0157 76.3181 34.986C76.5871 34.892 76.8608 34.8119 77.1381 34.746C77.7994 34.6297 78.4274 34.3704 78.9781 33.986C79.4827 33.5238 79.9142 32.9877 80.2581 32.396C80.284 32.3215 80.284 32.2405 80.2581 32.166C80.2581 31.986 80.1881 31.796 80.1481 31.606C79.9988 31.1789 79.9676 30.7194 80.0581 30.276L80.6481 30.066H80.7281C80.8292 29.9872 80.9169 29.8926 80.9881 29.786C81.0785 29.6677 81.1789 29.5573 81.2881 29.456C82.3581 30.066 82.6081 30.456 82.6281 30.756C82.4644 31.7804 81.9732 32.7242 81.2281 33.446C81.2239 33.4624 81.2239 33.4796 81.2281 33.496C79.0281 37.066 77.3781 38.956 76.9281 38.956C76.882 38.9457 76.8342 38.9457 76.7881 38.956C75.9381 38.956 74.0881 37.956 72.6281 35.676C71.7539 34.3721 71.0167 32.9814 70.4281 31.526C70.3304 31.2514 70.2065 30.9869 70.0581 30.736C69.6381 30.236 68.7081 28.966 69.0581 27.896C69.0899 27.8112 69.0867 27.7171 69.0492 27.6346C69.0117 27.5521 68.943 27.4879 68.8581 27.456C68.7732 27.4242 68.6792 27.4274 68.5966 27.4649C68.5141 27.5024 68.4499 27.5712 68.4181 27.656C68.0881 28.356 67.9781 29.576 69.2981 31.316C69.4046 31.5358 69.4948 31.7631 69.5681 31.996C70.0757 33.5426 70.7462 35.031 71.5681 36.436C71.8902 37.0034 72.2652 37.5391 72.6881 38.036C72.1381 40.036 71.5781 41.866 71.3481 42.596L70.9481 44.546C70.9383 44.5957 70.9405 44.647 70.9544 44.6957C70.9683 44.7443 70.9936 44.789 71.0281 44.826C73.8581 48.246 77.0281 54.446 77.2481 57.156C77.5681 58.506 77.7881 60.156 78.0281 61.896C78.299 64.821 78.8994 67.7059 79.8181 70.496C79.8076 70.6801 79.725 70.8526 79.5881 70.976C78.8834 71.208 78.1228 71.208 77.4181 70.976C76.9831 68.6272 76.2189 66.3514 75.1481 64.216H75.2181ZM63.0281 31.876C63.3581 31.816 63.6681 31.756 64.0281 31.666C64.0881 32.096 64.1581 32.526 64.2381 32.966C63.8081 32.716 63.3981 32.436 63.0381 32.196L62.6881 31.966L63.0281 31.876Z" fill="#2E2E2E"/>
<defs>
<linearGradient id="paint0_linear_10_175" x1="56.4623" y1="3.34292" x2="58.3515" y2="90.2658" gradientUnits="userSpaceOnUse">
<stop stop-color="#6D7582"/>
<stop offset="1" stop-color="#F4ECFF"/>
</linearGradient>
<linearGradient id="paint1_linear_10_175" x1="60.1889" y1="4.69058" x2="62.0781" y2="91.6135" gradientUnits="userSpaceOnUse">
<stop stop-color="#E8F0FE"/>
<stop offset="1" stop-color="#F4ECFF"/>
</linearGradient>
</defs>
</svg>

<svg width="140" height="90" fill="none" xmlns="http://www.w3.org/2000/svg"><mask id="a" style="mask-type:alpha" maskUnits="userSpaceOnUse" x="0" y="0" width="140" height="90"><path fill="#D9D9D9" d="M0 0h140v90H0z"/></mask><g mask="url(#a)" fill-rule="evenodd" clip-rule="evenodd"><path d="M42.544 8.294c12.382-2.216 25.37-2.81 38.265-.167 12.683 2.6 24.921 7.382 33.195 14.817 7.94 7.135 8.182 16.15 10.803 24.72 2.876 9.402 12.112 20.023 5.228 27.683-6.902 7.68-24.06 5.815-37.082 7.763-10.73 1.604-20.936 3.297-32.182 2.595-13.633-.85-28.686-.495-39.39-7.062C10.256 71.82 7.23 61.078 4.628 51.266c-2.713-10.233-5.784-21.432 1.59-29.79 7.298-8.271 22.555-10.717 36.325-13.182Z" fill="url(#b)"/><path d="M46.27 9.642c12.383-2.216 25.371-2.81 38.266-.167 12.682 2.6 24.92 7.381 33.195 14.817 7.94 7.135 8.181 16.15 10.803 24.72 2.876 9.401 12.112 20.022 5.228 27.682-6.902 7.68-24.06 5.816-37.082 7.763-10.73 1.605-20.937 3.297-32.183 2.596-13.633-.851-28.685-.495-39.39-7.062-11.124-6.824-14.149-17.565-16.751-27.378-2.714-10.232-5.785-21.431 1.59-29.79 7.298-8.27 22.555-10.717 36.325-13.181Z" fill="url(#c)"/></g><path d="M48.638 76.396a1.159 1.159 0 0 0 .75-.57 1.54 1.54 0 0 0 0-1.27 8.327 8.327 0 0 1-.51-2.47c.078-.24.185-.468.32-.68.33-.59.66-1.2.32-1.62a.93.93 0 0 0-.72-.36 2.3 2.3 0 0 0 .39-.17.37.37 0 0 0 .13-.12c2.08-3.15 6.63-6 9.64-7.92a14.696 14.696 0 0 0 3.32-2.4 20.56 20.56 0 0 0 5.56-6.05c.576.582 1.194 1.12 1.85 1.61.91.75 2 1.68 2.93 2.47a3.001 3.001 0 0 1 .57 2.45 5.437 5.437 0 0 0 .06 1.83 18.751 18.751 0 0 0 1.25 3.36 25.165 25.165 0 0 1 2.14 6.76v.1a2.81 2.81 0 0 0-.71 1.6 2.67 2.67 0 0 0 .2 2.18.72.72 0 0 0 .56.3h2.73a16.27 16.27 0 0 0 3-.33 9.998 9.998 0 0 0 3.73-1.5.319.319 0 0 0 .14-.24 1.22 1.22 0 0 0-.26-.91 1.642 1.642 0 0 0-1.18-.49 8.65 8.65 0 0 1-2.48-.42c-.2-.158-.38-.343-.53-.55-.43-.51-.87-1-1.39-.88-.077.025-.15.059-.22.1a39.25 39.25 0 0 1-1.75-8.42c-.23-1.76-.46-3.43-.77-4.76-.26-2.73-3.4-9-6.27-12.53l.35-1.75c.23-.72.82-2.64 1.38-4.73a.34.34 0 0 0-.07-.32 8.5 8.5 0 0 1-.52-.64 6.29 6.29 0 0 0 3.92 2.56c.38.15 1.47.16 5.09-5.72a5.31 5.31 0 0 0 1.56-3.18c0-.63-.58-1.22-1.66-1.83-.52-.36-1 .21-1.19.49l-.08.1c-.75.24-.8.32-.86.41a2.51 2.51 0 0 0 0 1.91c0 .13.06.27.08.4a5.87 5.87 0 0 1-1.06 1.31 4.128 4.128 0 0 1-1.57.62l-.56.15c-.71-1.93-1.52-3.85-1.83-4.6l-.08-.18a4.462 4.462 0 0 0-1.33-3.29 4.77 4.77 0 0 0-1.26-.88.244.244 0 0 0 0-.08l.15-.83c.464.13.94.213 1.42.25.73 0 .85-.83 1-2.06.41-.12.5-.26.54-.32a.44.44 0 0 0 .05-.3c0-.17-.17-.61-.29-1 0-.17-.1-.32-.13-.44.163-.81.203-1.639.12-2.46a.496.496 0 0 0 0-.13.677.677 0 0 0 .1-.21.289.289 0 0 0 0-.09 2.32 2.32 0 0 0-1.29-2.11 5.29 5.29 0 0 0-4.89-.33 4.421 4.421 0 0 0-2.12 2.9 5.89 5.89 0 0 0 1.39 4.66 4.38 4.38 0 0 1-.28 1.58 4.63 4.63 0 0 1-.56.29 7.179 7.179 0 0 0-1.71 1l-.36.15a16.691 16.691 0 0 0-5.66 3.3c-.38.34-.75.63-1.08.9-1 .83-1.7 1.38-1.72 2.08a1.358 1.358 0 0 0 .55 1 23.449 23.449 0 0 0 7.64 3.61 9.63 9.63 0 0 1-.61 4.1 8.7 8.7 0 0 0-2 6.59 18.352 18.352 0 0 1-1.24 2.86 38.868 38.868 0 0 0-2 4.64 13.61 13.61 0 0 1-3.28 2.29 15.6 15.6 0 0 0-3.36 2.34 13 13 0 0 0-1.67 2.36 17.998 17.998 0 0 1-3.57 4.43.3.3 0 0 0-.1.22 3.57 3.57 0 0 0-1.56 0 2.672 2.672 0 0 0-1.95 1 .72.72 0 0 0-.08.63l1 2.53a16.77 16.77 0 0 0 1.41 2.72 10 10 0 0 0 2.75 2.93.33.33 0 0 0 .19.06l.09.01Zm-2-9.09c.2 1.21.72 2.53 1.43 2.75.2.062.412.082.62.06.24 0 .28 0 .35.08.07.08-.23.62-.37.87a3.38 3.38 0 0 0-.4.93c.043.945.225 1.878.54 2.77a1 1 0 0 1 0 .74.37.37 0 0 1-.19.18 9.608 9.608 0 0 1-2.42-2.63c-.53-.826-.982-1.7-1.35-2.61-.24-.57-.8-1.94-1-2.5 0-.11.4-.55 1.49-.7.308-.046.619-.073.93-.08.31 0 .32.07.33.14h.04Zm30.58 4.61c1.2.25 2.62.25 3.08-.33a1.88 1.88 0 0 0 .29-.56c.07-.23.09-.27.2-.3.11-.03.49.44.68.66.195.275.435.515.71.71a9.418 9.418 0 0 0 2.78.5 1 1 0 0 1 .7.25.51.51 0 0 1 .1.25 9.567 9.567 0 0 1-3.33 1.29c-.961.197-1.939.304-2.92.32h-2.71c-.09 0-.36-.57-.11-1.64.25-1.07.39-1.2.49-1.2l.04.05Zm-2-7.7a19.312 19.312 0 0 1-1.21-3.24 5.22 5.22 0 0 1 0-1.62 3.621 3.621 0 0 0-.75-3c-.94-.84-2.08-1.77-3-2.52-.65-.54-1.32-1.09-1.59-1.34a40.214 40.214 0 0 0 2.42-6.43l.21-.69a.342.342 0 0 0-.64-.24l-.1.24c-.32.79-.87 2.11-2.2 5.16a20 20 0 0 1-6.39 7.73.32.32 0 0 0-.11.12 15.35 15.35 0 0 1-3.14 2.23c-3 1.92-7.61 4.8-9.79 8.05-.19.09-.33.15-.41.11-.08-.04-.47-.5-.94-2.11a18.32 18.32 0 0 0 3.53-4.43c.45-.804.983-1.558 1.59-2.25a15.5 15.5 0 0 1 3.21-2.21 13.37 13.37 0 0 0 3.51-2.51.406.406 0 0 0 .05-.09 38.482 38.482 0 0 1 2-4.61 18.21 18.21 0 0 0 1.3-3c.01-.04.01-.08 0-.12a7.998 7.998 0 0 1 1.93-6.2l.06-.09a10.56 10.56 0 0 0 .66-4.72.34.34 0 0 0-.3-.32 22.859 22.859 0 0 1-7.56-3.49c-.32-.29-.32-.46-.32-.52 0-.38.69-.92 1.47-1.56.34-.27.71-.57 1.1-.91a14.64 14.64 0 0 1 4.55-2.82 4.6 4.6 0 0 0-.85 2.42c-.031.62-.015 1.242.05 1.86l-.63.13c-.36.07-.77.15-1.23.28a.34.34 0 0 0 0 .66c.349.174.683.374 1 .6.42.28.89.59 1.39.88.08.34.19.67.29 1 .1.33.21.66.3 1a.34.34 0 1 0 .67-.12c-.1-.85-.24-1.68-.37-2.49a18.57 18.57 0 0 1-.4-4.19 3.9 3.9 0 0 1 .64-2 .35.35 0 0 0 0-.4h.06l.42-.17a.21.21 0 0 0 .1-.06 6.602 6.602 0 0 1 1.59-1 4.33 4.33 0 0 0 .76-.42.26.26 0 0 0 .11-.14c.258-.655.38-1.356.36-2.06a.32.32 0 0 0-.07-.19 5.34 5.34 0 0 1-1.33-4.21 3.79 3.79 0 0 1 1.8-2.44 4.58 4.58 0 0 1 4.18.32 1.73 1.73 0 0 1 1 1.42c-.15.25-.82.29-2 .12h-.3a.33.33 0 0 0-.37.27.36.36 0 0 0 .24.4 5.58 5.58 0 0 0 2.39.3 8.4 8.4 0 0 1-.17 1.9.29.29 0 0 0 0 .16c0 .13.09.32.16.53.07.21.17.54.22.74l-.26.07c-.14 0-.26.21-.28.36a4.41 4.41 0 0 1-.3 1.63 6.519 6.519 0 0 1-1.58-.33.34.34 0 0 0-.28 0 .311.311 0 0 0-.16.23l-.16.86a12.149 12.149 0 0 0-2.24-.26.35.35 0 0 0-.33.33.34.34 0 0 0 .3.35 6.77 6.77 0 0 1 3.66 1.52 3.88 3.88 0 0 1 1.11 2.87.27.27 0 0 0 0 .12l.1.24c.33.78 1.2 2.86 1.93 4.88a.35.35 0 0 0 .44.2 8.31 8.31 0 0 1 .82-.24 4.61 4.61 0 0 0 1.84-.76 6.768 6.768 0 0 0 1.28-1.59.35.35 0 0 0 0-.23c0-.18-.07-.37-.11-.56a2.51 2.51 0 0 1-.09-1.33l.59-.21h.08a1.2 1.2 0 0 0 .26-.28c.09-.118.19-.229.3-.33 1.07.61 1.32 1 1.34 1.3a4.8 4.8 0 0 1-1.4 2.69.1.1 0 0 0 0 .05c-2.2 3.57-3.85 5.46-4.3 5.46a.321.321 0 0 0-.14 0c-.85 0-2.7-1-4.16-3.28a22.808 22.808 0 0 1-2.2-4.15 4.543 4.543 0 0 0-.37-.79c-.42-.5-1.35-1.77-1-2.84a.342.342 0 0 0-.64-.24c-.33.7-.44 1.92.88 3.66.107.22.197.447.27.68a22.995 22.995 0 0 0 2 4.44 10.36 10.36 0 0 0 1.12 1.6c-.55 2-1.11 3.83-1.34 4.56l-.4 1.95a.32.32 0 0 0 .08.28c2.83 3.42 6 9.62 6.22 12.33.32 1.35.54 3 .78 4.74.271 2.925.871 5.81 1.79 8.6a.7.7 0 0 1-.23.48 3.47 3.47 0 0 1-2.17 0 25.4 25.4 0 0 0-2.27-6.76h.07Zm-12.19-32.34a15 15 0 0 0 1-.21c.06.43.13.86.21 1.3-.43-.25-.84-.53-1.2-.77l-.35-.23.34-.09Z" fill="#2E2E2E"/><defs><linearGradient id="b" x1="56.462" y1="3.343" x2="58.352" y2="90.266" gradientUnits="userSpaceOnUse"><stop stop-color="#6D7582"/><stop offset="1" stop-color="#F4ECFF"/></linearGradient><linearGradient id="c" x1="60.189" y1="4.691" x2="62.078" y2="91.614" gradientUnits="userSpaceOnUse"><stop stop-color="#E8F0FE"/><stop offset="1" stop-color="#F4ECFF"/></linearGradient></defs></svg>
